inst/assets/svg/wi-celsius.svg

<?xml version="1.0" encoding="UTF-8"?>
<svg xmlns="http://www.w3.org/2000/svg" xmlns:xlink="http://www.w3.org/1999/xlink" width="30pt" height="30pt" viewBox="0 0 30 30" version="1.1">
<g id="surface16">
<path style=" stroke:none;fill-rule:nonzero;fill:rgb(0%,0%,0%);fill-opacity:1;" d="M 9.75 10.980469 C 9.75 10.480469 9.929688 10.050781 10.28125 9.699219 C 10.640625 9.339844 11.058594 9.171875 11.558594 9.171875 C 12.050781 9.171875 12.480469 9.351563 12.828125 9.699219 C 13.179688 10.058594 13.359375 10.480469 13.359375 10.980469 C 13.359375 11.480469 13.179688 11.910156 12.828125 12.261719 C 12.480469 12.621094 12.050781 12.789063 11.558594 12.789063 C 11.058594 12.789063 10.628906 12.609375 10.28125 12.261719 C 9.929688 11.910156 9.75 11.480469 9.75 10.980469 Z M 10.628906 10.980469 C 10.628906 11.238281 10.71875 11.460938 10.898438 11.648438 C 11.089844 11.839844 11.308594 11.929688 11.570313 11.929688 C 11.828125 11.929688 12.050781 11.839844 12.238281 11.648438 C 12.429688 11.460938 12.519531 11.238281 12.519531 10.980469 C 12.519531 10.71875 12.429688 10.5 12.238281 10.308594 C 12.050781 10.121094 11.828125 10.03125 11.570313 10.03125 C 11.308594 10.03125 11.089844 10.121094 10.898438 10.308594 C 10.71875 10.488281 10.628906 10.71875 10.628906 10.980469 Z M 14.519531 15.398438 C 14.519531 16.171875 14.730469 16.851563 15.160156 17.449219 C 15.378906 17.761719 15.691406 18.011719 16.089844 18.199219 C 16.480469 18.378906 16.929688 18.480469 17.429688 18.480469 C 18.890625 18.480469 19.808594 17.921875 20.179688 16.808594 C 20.21875 16.671875 20.199219 16.53125 20.121094 16.398438 C 20.039063 16.269531 19.929688 16.199219 19.789063 16.171875 C 19.648438 16.128906 19.511719 16.148438 19.390625 16.238281 C 19.269531 16.320313 19.191406 16.429688 19.160156 16.578125 C 19.160156 16.589844 19.160156 16.601563 19.148438 16.628906 L 19.128906 16.699219 C 19.019531 16.890625 18.871094 17.039063 18.679688 17.148438 C 18.371094 17.339844 17.960938 17.429688 17.449219 17.429688 C 17.140625 17.429688 16.859375 17.378906 16.621094 17.269531 C 16.21875 17.101563 15.941406 16.800781 15.769531 16.378906 C 15.660156 16.109375 15.601563 15.78125 15.601563 15.410156 L 15.601563 12.191406 C 15.601563 12.039063 15.609375 11.890625 15.628906 11.738281 C 15.671875 11.359375 15.820313 11.011719 16.078125 10.699219 C 16.371094 10.351563 16.828125 10.179688 17.460938 10.179688 C 17.980469 10.179688 18.390625 10.269531 18.691406 10.449219 C 18.890625 10.570313 19.039063 10.71875 19.140625 10.898438 C 19.148438 10.921875 19.148438 10.949219 19.160156 10.980469 C 19.171875 11.011719 19.171875 11.03125 19.171875 11.039063 C 19.210938 11.179688 19.289063 11.28125 19.398438 11.339844 C 19.519531 11.410156 19.648438 11.421875 19.800781 11.390625 C 19.941406 11.359375 20.050781 11.28125 20.128906 11.160156 C 20.210938 11.039063 20.230469 10.910156 20.191406 10.761719 L 20.191406 10.75 L 20.109375 10.519531 C 20.058594 10.410156 19.96875 10.261719 19.828125 10.089844 C 19.699219 9.910156 19.539063 9.769531 19.378906 9.648438 C 19.171875 9.5 18.898438 9.378906 18.558594 9.269531 C 18.21875 9.171875 17.851563 9.121094 17.449219 9.121094 C 16.941406 9.121094 16.5 9.210938 16.101563 9.390625 C 15.710938 9.570313 15.398438 9.808594 15.191406 10.121094 C 14.761719 10.710938 14.539063 11.398438 14.539063 12.191406 L 14.539063 15.398438 Z M 14.519531 15.398438 "/>
</g>
</svg>

<?xml version="1.0" encoding="utf-8"?>
<!-- Generator: Adobe Illustrator 22.0.1, SVG Export Plug-In . SVG Version: 6.00 Build 0)  -->
<svg version="1.1" id="Layer_1" xmlns="http://www.w3.org/2000/svg" xmlns:xlink="http://www.w3.org/1999/xlink" x="0px" y="0px"
	 viewBox="0 0 30 30" style="enable-background:new 0 0 30 30;" xml:space="preserve">
<path d="M9.75,10.98c0-0.5,0.18-0.93,0.53-1.28c0.36-0.36,0.78-0.53,1.28-0.53c0.49,0,0.92,0.18,1.27,0.53
	c0.35,0.36,0.53,0.78,0.53,1.28c0,0.5-0.18,0.93-0.53,1.28c-0.35,0.36-0.78,0.53-1.27,0.53c-0.5,0-0.93-0.18-1.28-0.53
	S9.75,11.48,9.75,10.98z M10.63,10.98c0,0.26,0.09,0.48,0.27,0.67c0.19,0.19,0.41,0.28,0.67,0.28c0.26,0,0.48-0.09,0.67-0.28
	s0.28-0.41,0.28-0.67c0-0.26-0.09-0.48-0.28-0.67s-0.41-0.28-0.67-0.28c-0.26,0-0.48,0.09-0.67,0.28
	C10.72,10.49,10.63,10.72,10.63,10.98z M14.52,15.4c0,0.77,0.21,1.45,0.64,2.05c0.22,0.31,0.53,0.56,0.93,0.75
	c0.39,0.18,0.84,0.28,1.34,0.28c1.46,0,2.38-0.56,2.75-1.67c0.04-0.14,0.02-0.28-0.06-0.41c-0.08-0.13-0.19-0.2-0.33-0.23
	c-0.14-0.04-0.28-0.02-0.4,0.07c-0.12,0.08-0.2,0.19-0.23,0.34c0,0.01,0,0.02-0.01,0.05l-0.02,0.07c-0.11,0.19-0.26,0.34-0.45,0.45
	c-0.31,0.19-0.72,0.28-1.23,0.28c-0.31,0-0.59-0.05-0.83-0.16c-0.4-0.17-0.68-0.47-0.85-0.89c-0.11-0.27-0.17-0.6-0.17-0.97v-3.22
	c0-0.15,0.01-0.3,0.03-0.45c0.04-0.38,0.19-0.73,0.45-1.04c0.29-0.35,0.75-0.52,1.38-0.52c0.52,0,0.93,0.09,1.23,0.27
	c0.2,0.12,0.35,0.27,0.45,0.45c0.01,0.02,0.01,0.05,0.02,0.08c0.01,0.03,0.01,0.05,0.01,0.06c0.04,0.14,0.12,0.24,0.23,0.3
	c0.12,0.07,0.25,0.08,0.4,0.05c0.14-0.03,0.25-0.11,0.33-0.23c0.08-0.12,0.1-0.25,0.06-0.4v-0.01l-0.08-0.23
	c-0.05-0.11-0.14-0.26-0.28-0.43c-0.13-0.18-0.29-0.32-0.45-0.44c-0.21-0.15-0.48-0.27-0.82-0.38c-0.34-0.1-0.71-0.15-1.11-0.15
	c-0.51,0-0.95,0.09-1.35,0.27c-0.39,0.18-0.7,0.42-0.91,0.73c-0.43,0.59-0.65,1.28-0.65,2.07V15.4z"/>
</svg>
